Simply-White-Circles/scalable/categories/applications-photography.svg

<svg xmlns="http://www.w3.org/2000/svg" width="48" height="48" viewBox="0 0 12.7 12.7"><path d="M6.35.08A6.27 6.27 0 0 0 .08 6.35a6.27 6.27 0 0 0 6.27 6.27 6.27 6.27 0 0 0 6.27-6.27A6.27 6.27 0 0 0 6.35.08zm-.02.94a5.39 5.39 0 0 1 5.4 5.38 5.39 5.39 0 0 1-5.4 5.4A5.39 5.39 0 0 1 .94 6.4a5.39 5.39 0 0 1 5.4-5.39zM3.17 2.98a.2.2 0 0 0-.2.2v.27a.97.97 0 0 0-.59.9v4.4c0 .54.43.97.97.97h6a.97.97 0 0 0 .97-.97v-4.4a.97.97 0 0 0-.97-.98H4.37v-.2a.2.2 0 0 0-.2-.2h-1zm6.16.99a.4.4 0 0 1 .4.4.4.4 0 0 1-.4.4.4.4 0 0 1-.4-.4.4.4 0 0 1 .4-.4zm-2.98.8a2.18 2.18 0 0 1 2.18 2.18 2.18 2.18 0 0 1-2.18 2.18 2.18 2.18 0 0 1-2.18-2.18 2.18 2.18 0 0 1 2.18-2.18zm0 .34A1.85 1.85 0 0 0 4.5 6.95 1.85 1.85 0 0 0 6.35 8.8 1.85 1.85 0 0 0 8.2 6.95a1.85 1.85 0 0 0-1.85-1.84zm0 .64a1.2 1.2 0 0 1 1.2 1.2 1.2 1.2 0 0 1-1.2 1.2 1.2 1.2 0 0 1-1.2-1.2 1.2 1.2 0 0 1 1.2-1.2z" fill="#e6e6e6"/></svg>

<?xml version="1.0" encoding="UTF-8" standalone="no"?>
<svg
   xmlns:dc="http://purl.org/dc/elements/1.1/"
   xmlns:cc="http://creativecommons.org/ns#"
   xmlns:rdf="http://www.w3.org/1999/02/22-rdf-syntax-ns#"
   xmlns:svg="http://www.w3.org/2000/svg"
   xmlns="http://www.w3.org/2000/svg"
   xmlns:sodipodi="http://sodipodi.sourceforge.net/DTD/sodipodi-0.dtd"
   xmlns:inkscape="http://www.inkscape.org/namespaces/inkscape"
   width="48"
   height="48"
   viewBox="0 0 12.7 12.7"
   version="1.1"
   id="svg4"
   sodipodi:docname="applications-photography.svg"
   inkscape:version="0.92.4 (5da689c313, 2019-01-14)">
  <metadata
     id="metadata10">
    <rdf:RDF>
      <cc:Work
         rdf:about="">
        <dc:format>image/svg+xml</dc:format>
        <dc:type
           rdf:resource="http://purl.org/dc/dcmitype/StillImage" />
        <dc:title></dc:title>
      </cc:Work>
    </rdf:RDF>
  </metadata>
  <defs
     id="defs8" />
  <sodipodi:namedview
     pagecolor="#ffffff"
     bordercolor="#666666"
     borderopacity="1"
     objecttolerance="10"
     gridtolerance="10"
     guidetolerance="10"
     inkscape:pageopacity="0"
     inkscape:pageshadow="2"
     inkscape:window-width="1087"
     inkscape:window-height="480"
     id="namedview6"
     showgrid="false"
     inkscape:zoom="4.9166667"
     inkscape:cx="2.1355932"
     inkscape:cy="24"
     inkscape:window-x="0"
     inkscape:window-y="25"
     inkscape:window-maximized="0"
     inkscape:current-layer="svg4" />
  <path
     d="M 6.35,0.08 A 6.27,6.27 0 0 0 0.08,6.35 6.27,6.27 0 0 0 6.35,12.62 6.27,6.27 0 0 0 12.62,6.35 6.27,6.27 0 0 0 6.35,0.08 Z M 6.33,1.02 A 5.39,5.39 0 0 1 11.73,6.4 5.39,5.39 0 0 1 6.33,11.8 5.39,5.39 0 0 1 0.94,6.4 5.39,5.39 0 0 1 6.34,1.01 Z M 3.17,2.98 a 0.2,0.2 0 0 0 -0.2,0.2 v 0.27 a 0.97,0.97 0 0 0 -0.59,0.9 v 4.4 c 0,0.54 0.43,0.97 0.97,0.97 h 6 A 0.97,0.97 0 0 0 10.32,8.75 V 4.35 A 0.97,0.97 0 0 0 9.35,3.37 H 4.37 v -0.2 a 0.2,0.2 0 0 0 -0.2,-0.2 h -1 z m 6.16,0.99 a 0.4,0.4 0 0 1 0.4,0.4 0.4,0.4 0 0 1 -0.4,0.4 0.4,0.4 0 0 1 -0.4,-0.4 0.4,0.4 0 0 1 0.4,-0.4 z M 6.35,4.77 A 2.18,2.18 0 0 1 8.53,6.95 2.18,2.18 0 0 1 6.35,9.13 2.18,2.18 0 0 1 4.17,6.95 2.18,2.18 0 0 1 6.35,4.77 Z m 0,0.34 A 1.85,1.85 0 0 0 4.5,6.95 1.85,1.85 0 0 0 6.35,8.8 1.85,1.85 0 0 0 8.2,6.95 1.85,1.85 0 0 0 6.35,5.11 Z m 0,0.64 a 1.2,1.2 0 0 1 1.2,1.2 1.2,1.2 0 0 1 -1.2,1.2 1.2,1.2 0 0 1 -1.2,-1.2 1.2,1.2 0 0 1 1.2,-1.2 z"
     id="path2"
     inkscape:connector-curvature="0"
     style="fill:#e6e6e6" />
</svg>
